img/logo.svg

<?xml version="1.0" encoding="UTF-8"?>
<svg width="85px" height="20px" viewBox="0 0 85 20" version="1.1" xmlns="http://www.w3.org/2000/svg" xmlns:xlink="http://www.w3.org/1999/xlink">
    <!-- Generator: Sketch 39.1 (31720) - http://www.bohemiancoding.com/sketch -->
    <title>Logo</title>
    <desc>Created with Sketch.</desc>
    <defs></defs>
    <g id="Case-Study" stroke="none" stroke-width="1" fill="none" fill-rule="evenodd">
        <g id="02_Case-Study-Edriving" transform="translate(-25.000000, -25.000000)" fill="#231F20">
            <g id="Menu" transform="translate(25.000000, 25.000000)">
                <g id="Logo">
                    <polygon id="Fill-17" points="12.6339143 19.5745366 12.6339143 0.550146341 14.9930286 0.550146341 14.9930286 17.4028293 22.3880286 17.4028293 22.3880286 19.5745366"></polygon>
                    <path d="M58.76662,17.3407317 C61.6017343,17.3407317 62.4327914,15.9660976 62.4327914,13.8060976 C62.4327914,11.4002439 61.0397629,10.59 58.8399629,10.59 L55.5152486,10.59 L55.5152486,17.3407317 L58.76662,17.3407317 Z M55.4666771,2.73439024 L55.4666771,8.35585366 L57.6421914,8.35585366 C59.8905629,8.35585366 60.6244771,6.83439024 60.6244771,5.45926829 C60.6244771,3.61829268 59.4509914,2.73439024 57.8865057,2.73439024 L55.4666771,2.73439024 Z M53.1449629,0.55 L57.8865057,0.55 C61.2355057,0.55 62.9947629,2.53829268 62.9947629,5.45926829 C62.9947629,7.0304878 62.5551914,8.08658537 61.6507914,9.01878049 C63.70342,9.65731707 64.8040486,11.3509756 64.8040486,13.7812195 C64.8040486,17.8070732 62.5551914,19.5743902 58.7170771,19.5743902 L53.1449629,19.5743902 L53.1449629,0.55 Z" id="Fill-18"></path>
                    <polygon id="Fill-19" points="37.4494943 0.370243902 31.21778 19.3946341 33.6560657 19.3946341 37.4494943 7.09609756 41.2429229 19.3946341 43.6812086 19.3946341"></polygon>
                    <polygon id="Fill-20" points="0.114142857 19.5746341 2.50045714 19.5746341 2.50045714 0.550243902 0.114142857 0.550243902"></polygon>
                    <path d="M80.2358714,8.61678049 C77.8889,8.37385366 75.6390714,8.3977561 75.6390714,5.7982439 C75.6390714,3.9275122 76.1466429,2.73678049 78.7359857,2.73678049 C81.0538143,2.73678049 81.5881,3.82653659 81.7105,5.35287805 L84.0477571,4.72312195 C83.7101857,2.03970732 82.1729,0.54995122 78.7359857,0.54995122 C74.8162714,0.54995122 73.2440143,2.3484878 73.2440143,5.82263415 C73.2440143,9.39434146 75.7357286,10.4636098 77.9131857,10.6338537 C80.2358714,10.8275122 82.2438143,10.8762927 82.2438143,13.9377561 C82.2438143,16.1245854 81.7352714,17.3148293 79.2192714,17.3148293 L78.7597857,17.3148293 C76.3647286,17.3148293 75.6633571,16.1001951 75.5419286,14.5211707 L75.5341571,14.5211707 L73.1119,15.1733659 C73.4781286,17.9567805 75.2315571,19.5743415 78.7840714,19.5743415 L79.2435571,19.5743415 C83.0904143,19.5743415 84.6145857,17.8499512 84.6145857,13.8162927 C84.6145857,9.90458537 82.3890429,8.83580488 80.2358714,8.61678049" id="Fill-21"></path>
                </g>
            </g>
        </g>
    </g>
</svg>

<svg width="85" height="20" viewBox="0 0 85 20" xmlns="http://www.w3.org/2000/svg"><title>Logo</title><path d="M12.634 19.575V.55h2.359v16.853h7.395v2.172zm46.133-2.235c2.835 0 3.666-1.374 3.666-3.534 0-2.406-1.393-3.216-3.593-3.216h-3.325v6.75h3.252zm-3.3-14.606v5.622h2.175c2.249 0 2.982-1.522 2.982-2.897 0-1.84-1.173-2.725-2.737-2.725h-2.42zM53.145.55h4.742c3.349 0 5.108 1.988 5.108 4.91 0 1.57-.44 2.627-1.344 3.559 2.052.638 3.153 2.332 3.153 4.762 0 4.026-2.249 5.793-6.087 5.793h-5.572V.55zM37.45.37l-6.232 19.025h2.438L37.45 7.096l3.794 12.299h2.438zM.114 19.575H2.5V.55H.114zM80.236 8.617c-2.347-.243-4.597-.22-4.597-2.819 0-1.87.508-3.061 3.097-3.061 2.318 0 2.852 1.09 2.974 2.616l2.338-.63C83.71 2.04 82.173.55 78.736.55c-3.92 0-5.492 1.798-5.492 5.273 0 3.571 2.492 4.64 4.67 4.81 2.322.195 4.33.243 4.33 3.305 0 2.187-.509 3.377-3.025 3.377h-.46c-2.394 0-3.096-1.215-3.217-2.794h-.008l-2.422.652c.366 2.784 2.12 4.401 5.672 4.401h.46c3.846 0 5.37-1.724 5.37-5.758 0-3.911-2.225-4.98-4.378-5.2" fill="#231F20" fill-rule="evenodd"/></svg>
